icons/circle/48/cmplayer.svg

<svg xmlns="http://www.w3.org/2000/svg" viewBox="0 0 48 48">
  <defs>
    <linearGradient id="a" y1="47" x2="0" y2="1" gradientUnits="userSpaceOnUse">
      <stop stop-color="#383838"/>
      <stop offset="1" stop-color="#414142"/>
    </linearGradient>
  </defs>
  <path d="M36.31 5c5.859 4.062 9.688 10.831 9.688 18.5 0 12.426-10.07 22.5-22.5 22.5-7.669 0-14.438-3.828-18.5-9.688a23.24 23.24 0 0 0 3.781 4.969 22.923 22.923 0 0 0 15.469 5.969c12.703 0 23-10.298 23-23a22.92 22.92 0 0 0-5.969-15.469A23.216 23.216 0 0 0 36.31 5zm4.969 3.781A22.911 22.911 0 0 1 47.498 24.5c0 12.703-10.297 23-23 23a22.909 22.909 0 0 1-15.719-6.219C12.939 45.425 18.662 48 24.998 48c12.703 0 23-10.298 23-23 0-6.335-2.575-12.06-6.719-16.219z" opacity=".05"/>
  <path d="M41.28 8.781a22.923 22.923 0 0 1 5.969 15.469c0 12.703-10.297 23-23 23A22.92 22.92 0 0 1 8.78 41.281 22.911 22.911 0 0 0 24.499 47.5c12.703 0 23-10.298 23-23A22.909 22.909 0 0 0 41.28 8.781z" opacity=".1"/>
  <path d="M31.25 2.375C39.865 5.529 46 13.792 46 23.505c0 12.426-10.07 22.5-22.5 22.5-9.708 0-17.971-6.135-21.12-14.75a23 23 0 0 0 44.875-7 23 23 0 0 0-16-21.875z" opacity=".2"/>
  <path d="M24 1c12.703 0 23 10.297 23 23S36.703 47 24 47 1 36.703 1 24 11.297 1 24 1z" fill="url(#a)"/>
  <path d="M40.03 7.531A22.922 22.922 0 0 1 45.999 23c0 12.703-10.297 23-23 23A22.92 22.92 0 0 1 7.53 40.031C11.708 44.322 17.54 47 23.999 47c12.703 0 23-10.298 23-23 0-6.462-2.677-12.291-6.969-16.469z" opacity=".1"/>
  <path d="M25.439 10.01A15 15 0 0 0 10 25a15 15 0 0 0 30 0 15 15 0 0 0-14.563-14.994zm-10.06 7.473c2.451-.155 5.859 3.423 9.371 7.238-4.726-2.272-9.254-6.301-12.789-.559.51-4.72 1.741-6.574 3.418-6.68zm19.15 0c1.677.106 2.906 1.96 3.416 6.68-3.535-5.742-8.06-1.713-12.787.559 3.512-3.815 6.92-7.393 9.371-7.238zm-9.783 7.596c-5.915 6.426-11.533 12.179-12.789.561 3.535 5.742 8.06 1.711 12.789-.561zm.412 0c4.726 2.272 9.252 6.303 12.787.561-1.256 11.618-6.872 5.865-12.787-.561z" fill-opacity=".098"/>
  <path d="M24.438 9.01A15 15 0 0 0 8.998 24 15 15 0 0 0 39 24 15 15 0 0 0 24.438 9.01zm-10.063 7.47c2.451-.154 5.859 3.423 9.371 7.239-4.726-2.272-9.254-6.301-12.789-.559.51-4.72 1.741-6.574 3.418-6.68zm19.154 0c1.681.106 2.906 1.96 3.416 6.68-3.535-5.742-8.061-1.713-12.785.559 3.51-3.816 6.92-7.393 9.369-7.239zm-9.783 7.6c-5.915 6.422-11.533 12.17-12.789.557 3.535 5.742 8.063 1.711 12.789-.557zm.414 0c4.724 2.268 9.25 6.299 12.785.557-1.256 11.613-6.875 5.865-12.785-.557z" fill="#f9f9f9"/>
</svg>

<svg xmlns="http://www.w3.org/2000/svg" viewBox="0 0 48 48">
 <defs>
  <linearGradient id="linearGradient3764" y1="47" x2="0" y2="1" gradientUnits="userSpaceOnUse">
   <stop style="stop-color:#383838;stop-opacity:1"/>
   <stop offset="1" style="stop-color:#414142;stop-opacity:1"/>
  </linearGradient>
 </defs>
 <g>
  <path d="m 36.31 5 c 5.859 4.062 9.688 10.831 9.688 18.5 c 0 12.426 -10.07 22.5 -22.5 22.5 c -7.669 0 -14.438 -3.828 -18.5 -9.688 c 1.037 1.822 2.306 3.499 3.781 4.969 c 4.085 3.712 9.514 5.969 15.469 5.969 c 12.703 0 23 -10.298 23 -23 c 0 -5.954 -2.256 -11.384 -5.969 -15.469 c -1.469 -1.475 -3.147 -2.744 -4.969 -3.781 z m 4.969 3.781 c 3.854 4.113 6.219 9.637 6.219 15.719 c 0 12.703 -10.297 23 -23 23 c -6.081 0 -11.606 -2.364 -15.719 -6.219 c 4.16 4.144 9.883 6.719 16.219 6.719 c 12.703 0 23 -10.298 23 -23 c 0 -6.335 -2.575 -12.06 -6.719 -16.219 z" style="opacity:0.05"/>
  <path d="m 41.28 8.781 c 3.712 4.085 5.969 9.514 5.969 15.469 c 0 12.703 -10.297 23 -23 23 c -5.954 0 -11.384 -2.256 -15.469 -5.969 c 4.113 3.854 9.637 6.219 15.719 6.219 c 12.703 0 23 -10.298 23 -23 c 0 -6.081 -2.364 -11.606 -6.219 -15.719 z" style="opacity:0.1"/>
  <path d="m 31.25 2.375 c 8.615 3.154 14.75 11.417 14.75 21.13 c 0 12.426 -10.07 22.5 -22.5 22.5 c -9.708 0 -17.971 -6.135 -21.12 -14.75 a 23 23 0 0 0 44.875 -7 a 23 23 0 0 0 -16 -21.875 z" style="opacity:0.2"/>
 </g>
 <g>
  <path d="m 24 1 c 12.703 0 23 10.297 23 23 c 0 12.703 -10.297 23 -23 23 -12.703 0 -23 -10.297 -23 -23 0 -12.703 10.297 -23 23 -23 z" style="fill:url(#linearGradient3764);fill-opacity:1"/>
 </g>
 <g>
  <path d="m 40.03 7.531 c 3.712 4.084 5.969 9.514 5.969 15.469 0 12.703 -10.297 23 -23 23 c -5.954 0 -11.384 -2.256 -15.469 -5.969 4.178 4.291 10.01 6.969 16.469 6.969 c 12.703 0 23 -10.298 23 -23 0 -6.462 -2.677 -12.291 -6.969 -16.469 z" style="opacity:0.1"/>
 </g>
 <path d="M 25.439 10.01 A 15 15 0 0 0 10 25 a 15 15 0 0 0 30 0 15 15 0 0 0 -14.563 -14.994 z m -10.06 7.473 c 2.451 -0.155 5.859 3.423 9.371 7.238 -4.726 -2.272 -9.254 -6.301 -12.789 -0.559 0.51 -4.72 1.741 -6.574 3.418 -6.68 z m 19.15 0 c 1.677 0.106 2.906 1.96 3.416 6.68 -3.535 -5.742 -8.06 -1.713 -12.787 0.559 3.512 -3.815 6.92 -7.393 9.371 -7.238 z m -9.783 7.596 c -5.915 6.426 -11.533 12.179 -12.789 0.561 3.535 5.742 8.06 1.711 12.789 -0.561 z m 0.412 0 c 4.726 2.272 9.252 6.303 12.787 0.561 -1.256 11.618 -6.872 5.865 -12.787 -0.561 z" style="fill:#000;fill-opacity:0.098"/>
 <path d="M 24.438 9.01 A 15 15 0 0 0 8.998 24 A 15 15 0 0 0 39 24 A 15 15 0 0 0 24.438 9.01 z M 14.375 16.48 C 16.826 16.326 20.234 19.903 23.746 23.719 C 19.02 21.447 14.492 17.418 10.957 23.16 C 11.467 18.44 12.698 16.586 14.375 16.48 z M 33.529 16.48 C 35.21 16.586 36.435 18.44 36.945 23.16 C 33.41 17.418 28.884 21.447 24.16 23.719 C 27.67 19.903 31.08 16.326 33.529 16.48 z M 23.746 24.08 C 17.831 30.502 12.213 36.25 10.957 24.637 C 14.492 30.379 19.02 26.348 23.746 24.08 z M 24.16 24.08 C 28.884 26.348 33.41 30.379 36.945 24.637 C 35.689 36.25 30.07 30.502 24.16 24.08 z" style="fill:#f9f9f9;fill-opacity:1"/>
</svg>
